packages/sources/icons/src/vitamix/upload-line.svg

<svg width="16" height="16" viewBox="0 0 16 16" xmlns="http://www.w3.org/2000/svg"><path d="M2.66683 12.6667H13.3335V8H14.6668V13.3333C14.6668 13.5101 14.5966 13.6797 14.4716 13.8047C14.3465 13.9298 14.177 14 14.0002 14H2.00016C1.82335 14 1.65378 13.9298 1.52876 13.8047C1.40373 13.6797 1.3335 13.5101 1.3335 13.3333V8H2.66683V12.6667Z"/><path d="M8.00001 1.38372L11.7712 5.15495L10.8284 6.09776L8.66611 3.93543L8.66658 10.2832L7.33344 10.2832L7.33297 3.93637L5.17158 6.09776L4.22877 5.15495L8.00001 1.38372Z"/></svg>

<svg width="16" height="16" xmlns="http://www.w3.org/2000/svg"><path d="M2.667 12.667h10.666V8h1.334v5.333A.667.667 0 0 1 14 14H2a.666.666 0 0 1-.667-.667V8h1.334v4.667Z"/><path d="m8 1.384 3.771 3.771-.943.943-2.162-2.163v6.348H7.334V3.936L5.172 6.098l-.943-.943L8 1.384Z"/></svg>
